X: 9
T: Catharsis
R: reel
M: 4/4
L: 1/8
K: Gmin
"Gm"DF GF DF GF|DF GA BG AF|DF GF DF GF|"F/Dm" DE DC B,C A,B,|
"Gm" G,F GF DF GF|DF GA B2 Bc|"Eb"dc BA BA GF|[1"F/Dm"1DG GF "Gm"G2 G2]:|[2"F/Dm"2DG GF "Gm"GA Bc]|
"Gm"dG Gc GG BG|GA GG AG Ac|"F/Dm"dF Fc FF BF|FA FF AG Ac|
"Eb/Cm" dE Ec EE BE|EA EE AG Ac|"Cm" dc BA BA GF|[1"F/Dm" DG GF "Gm"GA Bc]:|[2"F/Dm" DG GF "Gm"G2 G2|]


Tune 703	Setting 28496

